X:105
T: Li tian ge
N: C1599
O: China, Anhui, Fengyang
S: III, 560(2)]
R: Shange]
M: 2/4
L: 1/16
K: Bb
c8 | dc3dc3 | c8 | b3cfc3 | c8
f4bc3 | d4f4 | b2g2g2f2 | g2f6
f3fg2g2 | b2b2g4 | d3bf2f2 | g2g2f2z2
fd3f4- | f8 | b4c4 | c6bg | f6d2 | c6bg | f8

